!!!SOCIAL_FUNCTION: songs of the kitsita society
!!!SOCIAL_FUNCTION2: Kitsita Society
!!!PDT:	1929
!!!LING_GROUP: Caddoan
!!!LANG: Non-Tone
!!!REG: Oklahoma
!!!COM: Anon.
!!!OTL: Lance Dance Song (b)
!!!ODT: <1920//
!!!MPN: Tsastawinahiigat [She led a phony into the ceremony, Effie Blain]
!!!MLC: Pawnee, Oklahoma, United States of America
!! Song was recorded either 1919 or 1920.
!!!AGN: monody
!!!AMT: irregular
!!!RWG: Transcribed pitches, durations, and meters are only approximate.
!! Drum not recorded
**kern
*ICvox
*Ifemale
*clefG2
*k[f#c#g#d#a#]
*M3/4
*MM66
*[A,B,C,B]
*>A
8cc#
=1
12cc#
12cc#
12cc#
8.cc#
16cc#
4b
=2
12g#
12g#
12g#
8.g#
16g#
4b
=3
12g#
12g#
12g#
8.g#
16g#
8.g#
16g#
=4
12f#
12f#
12f#
8.f#
16g#
8f#
8r
=5
12b
12g#
12g#
8.g#
16g#
8.b
16g#
*>B
*M2/4
=!|:6
12f#
12f#
12f#
8.f#
16f#
=7
4e
16c#
8.B
*M3/4
=8
8.c#
16c#
8.c#
16c#
4B
=9
12G#
12G#
12G#
8.G#
16B
4B
=10
12G#
12G#
12G#
8.G#
16B
4G#
*M2/4
=11
12F#
12F#
12F#
4F#
!! Fine
*>C
*M3/4
=12
12g#
12g#
12g#
8.g#
16b
8.b
16g#
=:|!
*-
!!!HAO: [no description]
!!!HTX: [no free translation]
!!!CNT: Pawnee
!!!TXO: Pawnee
!!!OCY: United States
!!!OCL: Frances Densmore
!!!YOR: Frances Densmore, "Pawnee Music"
!!!YOR: Bulletin 93, page 56, No. 28
!!!PPR: Smithsonian Institution, Bureau of American Ethnology
!!!PPR: Government Printing Office
!!!PDT: 1926
!!!PPP: Washington, DC, United States of America
!!!YEC: Electronic Copyright 2000 David Huron
!!!YER: September 2000
!!!YEN: United States of America
!!!ENC: David Huron
!!!RDT: September 3, 2000
!!!EEV: Release 1.0
!!!AIN: vox
